; G-Code generated by Simplify3D(R) Version 4.0.0
; Nov 11, 2018 at 2:36:30 PM
; Settings Summary
;   processName,Copie - titan PETG 0 HIVER
;   applyToModels,BateryCase
;   profileName,Copie - Titan PETG 0 (modified)
;   profileVersion,2017-03-01 08:00:00
;   baseProfile,Default (modified)
;   printMaterial,PLA
;   printQuality,High
;   printExtruders,
;   extruderName,Primary Extruder
;   extruderToolheadNumber,0
;   extruderDiameter,0.35
;   extruderAutoWidth,0
;   extruderWidth,0.52
;   extrusionMultiplier,0.96
;   extruderUseRetract,1
;   extruderRetractionDistance,0.6
;   extruderExtraRestartDistance,0
;   extruderRetractionZLift,0
;   extruderRetractionSpeed,1800
;   extruderUseCoasting,1
;   extruderCoastingDistance,0.2
;   extruderUseWipe,0
;   extruderWipeDistance,5
;   primaryExtruder,0
;   layerHeight,0.2
;   topSolidLayers,3
;   bottomSolidLayers,3
;   perimeterOutlines,3
;   printPerimetersInsideOut,1
;   startPointOption,2
;   startPointOriginX,0
;   startPointOriginY,0
;   sequentialIslands,0
;   spiralVaseMode,0
;   firstLayerHeightPercentage,45
;   firstLayerWidthPercentage,140
;   firstLayerUnderspeed,0.5
;   useRaft,0
;   raftExtruder,0
;   raftTopLayers,2
;   raftBaseLayers,1
;   raftOffset,3.5
;   raftSeparationDistance,0.3
;   raftTopInfill,100
;   aboveRaftSpeedMultiplier,0.65
;   useSkirt,1
;   skirtExtruder,0
;   skirtLayers,2
;   skirtOutlines,2
;   skirtOffset,4
;   usePrimePillar,0
;   primePillarExtruder,999
;   primePillarWidth,12
;   primePillarLocation,7
;   primePillarSpeedMultiplier,1
;   useOozeShield,0
;   oozeShieldExtruder,999
;   oozeShieldOffset,2
;   oozeShieldOutlines,1
;   oozeShieldSidewallShape,1
;   oozeShieldSidewallAngle,30
;   oozeShieldSpeedMultiplier,1
;   infillExtruder,0
;   internalInfillPattern,Grid
;   externalInfillPattern,Rectilinear
;   infillPercentage,30
;   outlineOverlapPercentage,35
;   infillExtrusionWidthPercentage,100
;   minInfillLength,3.2
;   infillLayerInterval,1
;   internalInfillAngles,45,-45
;   overlapInternalInfillAngles,1
;   externalInfillAngles,45,-45
;   generateSupport,1
;   supportExtruder,0
;   supportInfillPercentage,40
;   supportExtraInflation,0
;   supportBaseLayers,0
;   denseSupportExtruder,0
;   denseSupportLayers,0
;   denseSupportInfillPercentage,70
;   supportLayerInterval,1
;   supportHorizontalPartOffset,0.3
;   supportUpperSeparationLayers,2
;   supportLowerSeparationLayers,1
;   supportType,1
;   supportGridSpacing,4
;   maxOverhangAngle,45
;   supportAngles,0
;   temperatureName,Primary Extruder,HeatBed
;   temperatureNumber,0,0
;   temperatureSetpointCount,1,2
;   temperatureSetpointLayers,1,1,2
;   temperatureSetpointTemperatures,230,55,50
;   temperatureStabilizeAtStartup,1,1
;   temperatureHeatedBed,0,1
;   temperatureRelayBetweenLayers,0,0
;   temperatureRelayBetweenLoops,0,0
;   fanLayers,1,3
;   fanSpeeds,0,10
;   blipFanToFullPower,0
;   adjustSpeedForCooling,1
;   minSpeedLayerTime,15
;   minCoolingSpeedSlowdown,20
;   increaseFanForCooling,1
;   minFanLayerTime,45
;   maxCoolingFanSpeed,40
;   increaseFanForBridging,1
;   bridgingFanSpeed,60
;   use5D,1
;   relativeEdistances,0
;   allowEaxisZeroing,1
;   independentExtruderAxes,0
;   includeM10123,0
;   stickySupport,1
;   applyToolheadOffsets,0
;   gcodeXoffset,0
;   gcodeYoffset,0
;   gcodeZoffset,0
;   overrideMachineDefinition,1
;   machineTypeOverride,0
;   strokeXoverride,200
;   strokeYoverride,200
;   strokeZoverride,180
;   originOffsetXoverride,0
;   originOffsetYoverride,0
;   originOffsetZoverride,0
;   homeXdirOverride,-1
;   homeYdirOverride,-1
;   homeZdirOverride,-1
;   flipXoverride,1
;   flipYoverride,-1
;   flipZoverride,1
;   toolheadOffsets,0,0|0,0|0,0|0,0|0,0|0,0
;   overrideFirmwareConfiguration,1
;   firmwareTypeOverride,RepRap (Marlin/Repetier/Sprinter)
;   GPXconfigOverride,r2
;   baudRateOverride,250000
;   overridePrinterModels,0
;   printerModelsOverride
;   startingGcode,G28 ; home all axis,G420 Z10.5; defini a Z = +10.5
;   layerChangeGcode,
;   retractionGcode,
;   toolChangeGcode,
;   endingGcode,M104 S0 ; turn off extruder,M140 S0 ; turn off bed,G28 X0; Home X axis,M84 ; disable motors
;   exportFileFormat,gcode
;   celebration,0
;   celebrationSong,Random Song
;   postProcessing,
;   defaultSpeed,3600
;   outlineUnderspeed,0.7
;   solidInfillUnderspeed,0.9
;   supportUnderspeed,0.9
;   rapidXYspeed,3600
;   rapidZspeed,1002
;   minBridgingArea,5
;   bridgingExtraInflation,0.1
;   bridgingExtrusionMultiplier,1.05
;   bridgingSpeedMultiplier,0.7
;   useFixedBridgingAngle,0
;   fixedBridgingAngle,0
;   applyBridgingToPerimeters,0
;   filamentDiameters,1.75|1.75|1.75|1.75|1.75|1.75
;   filamentPricesPerKg,20|46|46|46|46|46
;   filamentDensities,1.25|1.25|1.25|1.25|1.25|1.25
;   useMinPrintHeight,0
;   minPrintHeight,0
;   useMaxPrintHeight,0
;   maxPrintHeight,0
;   useDiaphragm,0
;   diaphragmLayerInterval,20
;   robustSlicing,1
;   mergeAllIntoSolid,0
;   onlyRetractWhenCrossingOutline,1
;   retractBetweenLayers,1
;   useRetractionMinTravel,0
;   retractionMinTravel,3
;   retractWhileWiping,0
;   onlyWipeOutlines,1
;   avoidCrossingOutline,0
;   maxMovementDetourFactor,3
;   toolChangeRetractionDistance,12
;   toolChangeExtraRestartDistance,-0.5
;   toolChangeRetractionSpeed,600
;   externalThinWallType,0
;   internalThinWallType,2
;   thinWallAllowedOverlapPercentage,10
;   singleExtrusionMinLength,1
;   singleExtrusionMinPrintingWidthPercentage,50
;   singleExtrusionMaxPrintingWidthPercentage,200
;   singleExtrusionEndpointExtension,0.2
;   horizontalSizeCompensation,0
G90
M82
M106 S0
M140 S55
M190 S55
M104 S230 T0
M109 S230 T0
G28 ; home all axis
G420 Z10.5; defini a Z = +10.5
G92 E0
G1 E-0.6000 F1800
G1 Z0.090 F1002
; process Copie - titan PETG 0 HIVER
; layer 1, Z = 0.090
T0
; tool H0.200 W0.728
; skirt
G1 X66.772 Y63.553 F3600
G1 E0.0000 F540
G92 E0
G1 X66.800 Y63.527 E0.0022 F1800
G1 X67.325 Y63.068 E0.0428
G1 X67.355 Y63.044 E0.0450
G1 X67.705 Y62.795 E0.0699
G1 X67.737 Y62.774 E0.0722
G1 X68.560 Y62.301 E0.1273
G1 X68.594 Y62.283 E0.1296
G1 X68.990 Y62.105 E0.1548
G1 X69.025 Y62.091 E0.1570
G1 X69.686 Y61.868 E0.1975
G1 X69.723 Y61.858 E0.1997
G1 X70.140 Y61.761 E0.2246
G1 X70.177 Y61.755 E0.2268
G1 X71.043 Y61.642 E0.2775
G1 X71.068 Y61.639 E0.2790
G1 X71.352 Y61.621 E0.2956
G1 X71.378 Y61.620 E0.2971
G1 X128.554 Y61.620 E3.6197
G1 X128.567 Y61.620 E3.6205
G1 X128.714 Y61.625 E3.6290
G1 X128.727 Y61.626 E3.6298
G1 X129.279 Y61.663 E3.6619
G1 X129.317 Y61.667 E3.6641
G1 X129.742 Y61.738 E3.6892
G1 X129.779 Y61.746 E3.6914
G1 X130.697 Y61.993 E3.7466
G1 X130.734 Y62.005 E3.7489
G1 X131.139 Y62.158 E3.7740
G1 X131.174 Y62.173 E3.7762
G1 X131.798 Y62.482 E3.8167
G1 X131.831 Y62.501 E3.8189
G1 X132.196 Y62.729 E3.8439
G1 X132.228 Y62.750 E3.8462
G1 X132.981 Y63.330 E3.9014
G1 X133.010 Y63.355 E3.9036
G1 X133.326 Y63.651 E3.9288
G1 X133.353 Y63.679 E3.9310
G1 X133.811 Y64.204 E3.9715
G1 X133.835 Y64.234 E3.9737
G1 X134.085 Y64.584 E3.9987
G1 X134.105 Y64.616 E4.0009
G1 X134.579 Y65.439 E4.0562
G1 X134.597 Y65.474 E4.0584
G1 X134.775 Y65.869 E4.0836
G1 X134.789 Y65.905 E4.0858
G1 X135.011 Y66.565 E4.1263
G1 X135.022 Y66.602 E4.1285
G1 X135.118 Y67.019 E4.1534
G1 X135.125 Y67.056 E4.1556
G1 X135.238 Y67.922 E4.2064
G1 X135.241 Y67.948 E4.2078
G1 X135.259 Y68.232 E4.2244
G1 X135.260 Y68.257 E4.2259
G1 X135.260 Y131.674 E7.9112
G1 X135.260 Y131.687 E7.9119
G1 X135.255 Y131.834 E7.9205
G1 X135.254 Y131.847 E7.9212
G1 X135.217 Y132.399 E7.9534
G1 X135.213 Y132.437 E7.9556
G1 X135.142 Y132.862 E7.9806
G1 X135.134 Y132.899 E7.9828
G1 X134.887 Y133.817 E8.0381
G1 X134.875 Y133.854 E8.0403
G1 X134.722 Y134.259 E8.0655
G1 X134.707 Y134.294 E8.0677
G1 X134.397 Y134.918 E8.1082
G1 X134.379 Y134.952 E8.1104
G1 X134.151 Y135.317 E8.1354
G1 X134.129 Y135.348 E8.1376
G1 X133.550 Y136.101 E8.1929
G1 X133.525 Y136.130 E8.1951
G1 X133.229 Y136.446 E8.2203
G1 X133.201 Y136.473 E8.2225
G1 X132.676 Y136.931 E8.2630
G1 X132.646 Y136.955 E8.2652
G1 X132.296 Y137.205 E8.2902
G1 X132.264 Y137.225 E8.2924
G1 X131.441 Y137.699 E8.3476
G1 X131.406 Y137.717 E8.3499
G1 X131.011 Y137.895 E8.3751
G1 X130.975 Y137.909 E8.3773
G1 X130.315 Y138.131 E8.4178
G1 X130.278 Y138.142 E8.4200
G1 X129.861 Y138.238 E8.4449
G1 X129.824 Y138.245 E8.4471
G1 X128.958 Y138.358 E8.4978
G1 X128.933 Y138.361 E8.4993
G1 X128.648 Y138.379 E8.5159
G1 X128.623 Y138.380 E8.5174
G1 X71.375 Y138.380 E11.8441
G1 X71.349 Y138.379 E11.8456
G1 X71.061 Y138.360 E11.8624
G1 X71.036 Y138.358 E11.8639
G1 X70.160 Y138.242 E11.9152
G1 X70.122 Y138.235 E11.9175
G1 X69.699 Y138.136 E11.9427
G1 X69.662 Y138.125 E11.9449
G1 X69.002 Y137.900 E11.9855
G1 X68.967 Y137.886 E11.9877
G1 X68.575 Y137.708 E12.0127
G1 X68.541 Y137.690 E12.0149
G1 X67.658 Y137.179 E12.0742
G1 X67.616 Y137.150 E12.0772
G1 X67.161 Y136.801 E12.1105
G1 X67.122 Y136.767 E12.1135
G1 X66.346 Y135.990 E12.1773
G1 X66.312 Y135.951 E12.1803
G1 X65.960 Y135.491 E12.2140
G1 X65.932 Y135.448 E12.2169
G1 X65.418 Y134.553 E12.2770
G1 X65.400 Y134.519 E12.2792
G1 X65.222 Y134.124 E12.3044
G1 X65.208 Y134.088 E12.3066
G1 X64.988 Y133.432 E12.3468
G1 X64.978 Y133.396 E12.3490
G1 X64.882 Y132.980 E12.3738
G1 X64.875 Y132.943 E12.3760
G1 X64.762 Y132.079 E12.4266
G1 X64.759 Y132.054 E12.4281
G1 X64.741 Y131.769 E12.4447
G1 X64.740 Y131.744 E12.4461
G1 X64.740 Y68.251 E16.1358
G1 X64.741 Y68.225 E16.1373
G1 X64.760 Y67.936 E16.1542
G1 X64.763 Y67.911 E16.1557
G1 X64.878 Y67.039 E16.2068
G1 X64.885 Y67.001 E16.2090
G1 X64.983 Y66.583 E16.2340
G1 X64.994 Y66.546 E16.2362
G1 X65.194 Y65.957 E16.2723
G1 X65.203 Y65.933 E16.2738
G1 X65.314 Y65.665 E16.2907
G1 X65.325 Y65.642 E16.2922
G1 X65.603 Y65.081 E16.3286
G1 X65.622 Y65.048 E16.3308
G1 X65.849 Y64.683 E16.3558
G1 X65.871 Y64.651 E16.3580
G1 X66.450 Y63.898 E16.4132
G1 X66.475 Y63.869 E16.4154
G1 X66.635 Y63.699 E16.4290
G1 X66.772 Y63.553 F1800
G1 X67.142 Y63.919 F3600
G92 E0
G1 X67.151 Y63.910 E0.0007 F1800
G1 X67.657 Y63.468 E0.0398
G1 X67.667 Y63.460 E0.0405
G1 X67.996 Y63.225 E0.0640
G1 X68.007 Y63.219 E0.0648
G1 X68.808 Y62.758 E0.1185
G1 X68.820 Y62.752 E0.1192
G1 X69.192 Y62.584 E0.1429
G1 X69.203 Y62.579 E0.1437
G1 X69.840 Y62.365 E0.1827
G1 X69.852 Y62.362 E0.1834
G1 X70.245 Y62.271 E0.2068
G1 X70.257 Y62.269 E0.2076
G1 X71.102 Y62.158 E0.2571
G1 X71.110 Y62.158 E0.2575
G1 X71.378 Y62.140 E0.2731
G1 X71.386 Y62.140 E0.2736
G1 X128.550 Y62.140 E3.5955
G1 X128.554 Y62.140 E3.5958
G1 X128.692 Y62.145 E3.6038
G1 X128.697 Y62.145 E3.6041
G1 X129.232 Y62.181 E3.6352
G1 X129.244 Y62.182 E3.6360
G1 X129.644 Y62.249 E3.6595
G1 X129.656 Y62.251 E3.6602
G1 X130.550 Y62.492 E3.7140
G1 X130.562 Y62.496 E3.7148
G1 X130.943 Y62.640 E3.7384
G1 X130.955 Y62.645 E3.7392
G1 X131.556 Y62.943 E3.7782
G1 X131.567 Y62.949 E3.7789
G1 X131.910 Y63.163 E3.8024
G1 X131.921 Y63.170 E3.8032
G1 X132.654 Y63.734 E3.8569
G1 X132.664 Y63.743 E3.8576
G1 X132.960 Y64.022 E3.8813
G1 X132.969 Y64.031 E3.8821
G1 X133.411 Y64.536 E3.9211
G1 X133.419 Y64.546 E3.9218
G1 X133.654 Y64.876 E3.9453
G1 X133.661 Y64.886 E3.9461
G1 X134.122 Y65.688 E3.9998
G1 X134.128 Y65.699 E4.0005
G1 X134.296 Y66.071 E4.0242
G1 X134.300 Y66.083 E4.0250
G1 X134.515 Y66.719 E4.0640
G1 X134.518 Y66.731 E4.0647
G1 X134.609 Y67.124 E4.0882
G1 X134.611 Y67.136 E4.0889
G1 X134.721 Y67.981 E4.1384
G1 X134.722 Y67.990 E4.1389
G1 X134.740 Y68.257 E4.1545
G1 X134.740 Y68.266 E4.1550
G1 X134.740 Y131.670 E7.8395
G1 X134.740 Y131.674 E7.8398
G1 X134.735 Y131.812 E7.8478
G1 X134.735 Y131.817 E7.8480
G1 X134.699 Y132.351 E7.8792
G1 X134.698 Y132.364 E7.8799
G1 X134.631 Y132.764 E7.9035
G1 X134.629 Y132.776 E7.9042
G1 X134.388 Y133.670 E7.9580
G1 X134.384 Y133.682 E7.9588
G1 X134.240 Y134.063 E7.9824
G1 X134.235 Y134.075 E7.9832
G1 X133.937 Y134.676 E8.0222
G1 X133.931 Y134.687 E8.0229
G1 X133.717 Y135.030 E8.0464
G1 X133.709 Y135.041 E8.0472
G1 X133.146 Y135.774 E8.1009
G1 X133.137 Y135.784 E8.1016
G1 X132.858 Y136.081 E8.1253
G1 X132.849 Y136.089 E8.1261
G1 X132.343 Y136.531 E8.1651
G1 X132.334 Y136.539 E8.1658
G1 X132.004 Y136.774 E8.1893
G1 X131.994 Y136.781 E8.1900
G1 X131.192 Y137.242 E8.2438
G1 X131.181 Y137.248 E8.2445
G1 X130.809 Y137.416 E8.2682
G1 X130.797 Y137.420 E8.2690
G1 X130.161 Y137.635 E8.3080
G1 X130.149 Y137.638 E8.3087
G1 X129.756 Y137.729 E8.3321
G1 X129.744 Y137.731 E8.3329
G1 X128.899 Y137.841 E8.3824
G1 X128.890 Y137.842 E8.3829
G1 X128.623 Y137.860 E8.3985
G1 X128.614 Y137.860 E8.3990
G1 X71.383 Y137.860 E11.7248
G1 X71.375 Y137.860 E11.7253
G1 X71.104 Y137.842 E11.7410
G1 X71.096 Y137.841 E11.7415
G1 X70.241 Y137.728 E11.7916
G1 X70.228 Y137.726 E11.7924
G1 X69.830 Y137.633 E11.8161
G1 X69.818 Y137.629 E11.8169
G1 X69.182 Y137.412 E11.8559
G1 X69.171 Y137.407 E11.8566
G1 X68.802 Y137.240 E11.8802
G1 X68.791 Y137.234 E11.8809
G1 X67.933 Y136.737 E11.9385
G1 X67.919 Y136.728 E11.9395
G1 X67.491 Y136.399 E11.9709
G1 X67.478 Y136.387 E11.9718
G1 X66.726 Y135.634 E12.0337
G1 X66.715 Y135.621 E12.0347
G1 X66.384 Y135.189 E12.0663
G1 X66.374 Y135.175 E12.0673
G1 X65.875 Y134.305 E12.1256
G1 X65.869 Y134.294 E12.1264
G1 X65.702 Y133.922 E12.1500
G1 X65.697 Y133.910 E12.1508
G1 X65.485 Y133.278 E12.1895
G1 X65.481 Y133.266 E12.1902
G1 X65.391 Y132.875 E12.2136
G1 X65.389 Y132.863 E12.2143
G1 X65.279 Y132.020 E12.2637
G1 X65.278 Y132.012 E12.2642
G1 X65.260 Y131.744 E12.2798
G1 X65.260 Y131.735 E12.2803
G1 X65.260 Y68.260 E15.9690
G1 X65.260 Y68.251 E15.9695
G1 X65.278 Y67.979 E15.9853
G1 X65.279 Y67.970 E15.9858
G1 X65.392 Y67.120 E16.0357
G1 X65.394 Y67.108 E16.0364
G1 X65.487 Y66.714 E16.0599
G1 X65.490 Y66.702 E16.0607
G1 X65.683 Y66.133 E16.0956
G1 X65.686 Y66.125 E16.0961
G1 X65.791 Y65.873 E16.1119
G1 X65.795 Y65.865 E16.1124
G1 X66.063 Y65.323 E16.1476
G1 X66.069 Y65.312 E16.1483
G1 X66.284 Y64.969 E16.1718
G1 X66.291 Y64.958 E16.1725
G1 X66.855 Y64.226 E16.2263
G1 X66.863 Y64.216 E16.2270
G1 X67.005 Y64.065 E16.2391
G1 X67.142 Y63.919 F1800
G92 E0
G1 E-0.6000 F1800
; inner perimeter
G1 X71.340 Y68.220 F3600
G1 E0.0000 F1800
G92 E0
G1 X119.660 Y68.220 E2.8080 F1530
G1 X119.660 Y131.780 E6.5016
G1 X71.340 Y131.780 E9.3096
G1 X71.340 Y68.420 E12.9915
G1 X71.340 Y68.220 F1530
G1 X70.880 Y67.759 F3600
G92 E0
G1 X70.969 Y67.681 E0.0069 F1530
G1 X71.068 Y67.615 E0.0138
G1 X71.174 Y67.563 E0.0207
G1 X71.285 Y67.525 E0.0275
G1 X71.406 Y67.502 E0.0346
G1 X71.556 Y67.492 E0.0434
G1 X120.388 Y67.492 E2.8811
G1 X120.388 Y132.508 E6.6593
G1 X71.555 Y132.508 E9.4971
G1 X71.401 Y132.498 E9.5060
G1 X71.285 Y132.475 E9.5129
G1 X71.173 Y132.436 E9.5198
G1 X71.067 Y132.384 E9.5267
G1 X70.968 Y132.318 E9.5336
G1 X70.879 Y132.240 E9.5405
G1 X70.801 Y132.151 E9.5474
G1 X70.735 Y132.052 E9.5542
G1 X70.683 Y131.946 E9.5611
G1 X70.645 Y131.834 E9.5680
G1 X70.622 Y131.717 E9.5749
G1 X70.612 Y131.565 E9.5838
G1 X70.612 Y68.435 E13.2524
G1 X70.622 Y68.281 E13.2613
G1 X70.645 Y68.165 E13.2682
G1 X70.684 Y68.053 E13.2751
G1 X70.736 Y67.947 E13.2820
G1 X70.757 Y67.916 E13.2842
G1 X70.802 Y67.848 F1530
G1 X70.880 Y67.759 F1530
; outer perimeter
G1 X70.365 Y67.243 F3600
G92 E0
G1 X70.525 Y67.102 E0.0124 F1260
G1 X70.703 Y66.983 E0.0249
G1 X70.895 Y66.889 E0.0373
G1 X71.098 Y66.820 E0.0497
G1 X71.312 Y66.778 E0.0624
G1 X71.532 Y66.764 E0.0752
G1 X128.469 Y66.764 E3.3839
G1 X128.694 Y66.779 E3.3971
G1 X128.904 Y66.821 E3.4095
G1 X129.107 Y66.890 E3.4219
G1 X129.298 Y66.984 E3.4343
G1 X129.476 Y67.103 E3.4468
G1 X129.637 Y67.244 E3.4592
G1 X129.778 Y67.405 E3.4716
G1 X129.897 Y67.583 E3.4841
G1 X129.991 Y67.775 E3.4965
G1 X130.060 Y67.978 E3.5089
G1 X130.101 Y68.188 E3.5214
G1 X130.116 Y68.412 E3.5344
G1 X130.116 Y131.589 E7.2058
G1 X130.101 Y131.814 E7.2189
G1 X130.059 Y132.024 E7.2313
G1 X129.990 Y132.227 E7.2438
G1 X129.896 Y132.418 E7.2562
G1 X129.777 Y132.596 E7.2686
G1 X129.636 Y132.757 E7.2811
G1 X129.475 Y132.898 E7.2935
G1 X129.297 Y133.017 E7.3059
G1 X129.105 Y133.111 E7.3184
G1 X128.902 Y133.180 E7.3308
G1 X128.692 Y133.221 E7.3432
G1 X128.468 Y133.236 E7.3563
G1 X71.531 Y133.236 E10.6650
G1 X71.306 Y133.221 E10.6781
